X:40
T:Pretty Milliner, The
M:2/4
L:1/8
B:Thompson's Compleat Collection of 200 Favourite Country Dances, vol. 1 (London, 1757)
Z:Transcribed and edited by Fynnian Titford-Mock, 2007
Z:abc's:AK/Fiddler's Companion
K:G
GGBB|dd g2|dBAG|AFED|GGBB|dd g2|faf^c|d2 D2::cBc).d|ca "tr"a2|
(BAB).c|Bg "tr"g2|gfed|edcB|cBAG|AFED|GGBB|dd g2|BGDF|G2 G,2:|

